X: 17751
T: Hommage à Edmond Parizeau
R: reel
M: 4/4
K: Amajor
ABcd|:eAAe AAeA|AAeA efed|ceAB cAeA|cAeA cdcA|B4 BABc|
[1 BcAc efed|c2(3BcB ABcA|E4 ABcd:|2 e2d2 c2B2|Afed cdBc|A2c2 (3BcB A2||
|:a4 f4|d3A d2f2|e4 efec|A2c2 (3BcB A2|B4 BABc|
e2d2 c2B2|1 cBAc ecef|e2c2 (3BcB A2:|2 Afed cABc|A4 ABcd||

